X:22
T:Angeline the Baker
C:David Grier solo
A:Freewheeling
N:Transcribed by Kim Davis
R:bluegrass
L:1/8
Q:1/4=225
M:4/4
K:D
AB |: "D"AA B2 [d2A2] AA | [B2D2] [d3A3]d B2 | [A2D2] B2 [d2A2] e2 | "G"[B2D2] gB dg Bd | 
|"D"[A2D2] B2 [d2A2] e2 | fa fe d3e | fa fe dA Bd |1 [A2D2] [AD]d [A2D2] [AD]B :|2 [A2D2] [AD]d [A2D2] (3efg |] 
|: "D"a2 f2 e2 de | fe d[AD] Bd [A2D2] | aa f2 (3efe d2 | "G"[B2D2] B[g2d2][gd] [g2d2] | 
|[a2A2] [f2A2] [e2A2] de | fe ^A2 [B2D2] BB | "D"AB de fe dB |1 [d2A2] [dA][dA] [d2A2] (3efg :|2 [A3E3A,3][eB] [e4A4] |] 

